static/img/kroki/d2ace6e93922924cf9a695bae077c4d5.svg

<?xml version="1.0" encoding="us-ascii" standalone="no"?><svg xmlns="http://www.w3.org/2000/svg" xmlns:xlink="http://www.w3.org/1999/xlink" contentStyleType="text/css" height="573px" preserveAspectRatio="none" style="width:324px;height:573px;" version="1.1" viewBox="0 0 324 573" width="324px" zoomAndPan="magnify"><defs/><g><!--class ai_model--><g id="elem_ai_model"><rect codeLine="23" fill="#3D176E" height="39.7891" id="ai_model" rx="2.5" ry="2.5" style="stroke:#000D19;stroke-width:0.5;" width="118" x="42" y="367.37"/><ellipse cx="57" cy="387.2645" fill="#ADD1B2" rx="11" ry="11" style="stroke:#181818;stroke-width:1.0;"/><path d="M59.9688,392.9052 Q59.3906,393.202 58.75,393.3427 Q58.1094,393.4989 57.4063,393.4989 Q54.9063,393.4989 53.5781,391.8583 Q52.2656,390.202 52.2656,387.077 Q52.2656,383.952 53.5781,382.2958 Q54.9063,380.6395 57.4063,380.6395 Q58.1094,380.6395 58.75,380.7958 Q59.4063,380.952 59.9688,381.2489 L59.9688,383.9677 Q59.3438,383.3895 58.75,383.1239 Q58.1563,382.8427 57.5313,382.8427 Q56.1875,382.8427 55.5,383.9208 Q54.8125,384.9833 54.8125,387.077 Q54.8125,389.1708 55.5,390.2489 Q56.1875,391.3114 57.5313,391.3114 Q58.1563,391.3114 58.75,391.0458 Q59.3438,390.7645 59.9688,390.1864 L59.9688,392.9052 Z " fill="#000000"/><text fill="#D9B8FF" font-family="Helvetica" font-size="17" lengthAdjust="spacing" textLength="76" x="76" y="393.1498">ai_model</text></g><!--class ai_resource--><g id="elem_ai_resource"><rect codeLine="26" fill="#3D176E" height="39.7891" id="ai_resource" rx="2.5" ry="2.5" style="stroke:#000D19;stroke-width:0.5;" width="137" x="27.5" y="167.79"/><ellipse cx="42.5" cy="187.6845" fill="#ADD1B2" rx="11" ry="11" style="stroke:#181818;stroke-width:1.0;"/><path d="M45.4688,193.3252 Q44.8906,193.622 44.25,193.7627 Q43.6094,193.9189 42.9063,193.9189 Q40.4063,193.9189 39.0781,192.2783 Q37.7656,190.622 37.7656,187.497 Q37.7656,184.372 39.0781,182.7158 Q40.4063,181.0595 42.9063,181.0595 Q43.6094,181.0595 44.25,181.2158 Q44.9063,181.372 45.4688,181.6689 L45.4688,184.3877 Q44.8438,183.8095 44.25,183.5439 Q43.6563,183.2627 43.0313,183.2627 Q41.6875,183.2627 41,184.3408 Q40.3125,185.4033 40.3125,187.497 Q40.3125,189.5908 41,190.6689 Q41.6875,191.7314 43.0313,191.7314 Q43.6563,191.7314 44.25,191.4658 Q44.8438,191.1845 45.4688,190.6064 L45.4688,193.3252 Z " fill="#000000"/><text fill="#D9B8FF" font-family="Helvetica" font-size="17" lengthAdjust="spacing" textLength="95" x="61.5" y="193.5698">ai_resource</text></g><!--class aws_bedrock_foundation_model--><g id="elem_aws_bedrock_foundation_model"><rect codeLine="29" fill="#3D176E" height="39.7891" id="aws_bedrock_foundation_model" rx="2.5" ry="2.5" style="stroke:#000D19;stroke-width:0.5;" width="310" x="7" y="528.16"/><ellipse cx="22" cy="548.0545" fill="#ADD1B2" rx="11" ry="11" style="stroke:#181818;stroke-width:1.0;"/><path d="M24.9688,553.6952 Q24.3906,553.992 23.75,554.1327 Q23.1094,554.2889 22.4063,554.2889 Q19.9063,554.2889 18.5781,552.6483 Q17.2656,550.992 17.2656,547.867 Q17.2656,544.742 18.5781,543.0858 Q19.9063,541.4295 22.4063,541.4295 Q23.1094,541.4295 23.75,541.5858 Q24.4063,541.742 24.9688,542.0389 L24.9688,544.7577 Q24.3438,544.1795 23.75,543.9139 Q23.1563,543.6327 22.5313,543.6327 Q21.1875,543.6327 20.5,544.7108 Q19.8125,545.7733 19.8125,547.867 Q19.8125,549.9608 20.5,551.0389 Q21.1875,552.1014 22.5313,552.1014 Q23.1563,552.1014 23.75,551.8358 Q24.3438,551.5545 24.9688,550.9764 L24.9688,553.6952 Z " fill="#000000"/><text fill="#D9B8FF" font-family="Helvetica" font-size="17" lengthAdjust="spacing" textLength="268" x="41" y="553.9398">aws_bedrock_foundation_model</text></g><!--class aws_resource--><g id="elem_aws_resource"><rect codeLine="32" fill="#3D176E" height="39.7891" id="aws_resource" rx="2.5" ry="2.5" style="stroke:#000D19;stroke-width:0.5;" width="155" x="145.5" y="267.58"/><ellipse cx="160.5" cy="287.4745" fill="#ADD1B2" rx="11" ry="11" style="stroke:#181818;stroke-width:1.0;"/><path d="M163.4688,293.1152 Q162.8906,293.412 162.25,293.5527 Q161.6094,293.7089 160.9063,293.7089 Q158.4063,293.7089 157.0781,292.0683 Q155.7656,290.412 155.7656,287.287 Q155.7656,284.162 157.0781,282.5058 Q158.4063,280.8495 160.9063,280.8495 Q161.6094,280.8495 162.25,281.0058 Q162.9063,281.162 163.4688,281.4589 L163.4688,284.1777 Q162.8438,283.5995 162.25,283.3339 Q161.6563,283.0527 161.0313,283.0527 Q159.6875,283.0527 159,284.1308 Q158.3125,285.1933 158.3125,287.287 Q158.3125,289.3808 159,290.4589 Q159.6875,291.5214 161.0313,291.5214 Q161.6563,291.5214 162.25,291.2558 Q162.8438,290.9745 163.4688,290.3964 L163.4688,293.1152 Z " fill="#000000"/><text fill="#D9B8FF" font-family="Helvetica" font-size="17" lengthAdjust="spacing" textLength="113" x="179.5" y="293.3598">aws_resource</text></g><!--class resource--><g id="elem_resource"><rect codeLine="35" fill="#3D176E" height="39.7891" id="resource" rx="2.5" ry="2.5" style="stroke:#000D19;stroke-width:0.5;" width="113" x="102.5" y="7"/><ellipse cx="117.5" cy="26.8945" fill="#ADD1B2" rx="11" ry="11" style="stroke:#181818;stroke-width:1.0;"/><path d="M120.4688,32.5352 Q119.8906,32.832 119.25,32.9727 Q118.6094,33.1289 117.9063,33.1289 Q115.4063,33.1289 114.0781,31.4883 Q112.7656,29.832 112.7656,26.707 Q112.7656,23.582 114.0781,21.9258 Q115.4063,20.2695 117.9063,20.2695 Q118.6094,20.2695 119.25,20.4258 Q119.9063,20.582 120.4688,20.8789 L120.4688,23.5977 Q119.8438,23.0195 119.25,22.7539 Q118.6563,22.4727 118.0313,22.4727 Q116.6875,22.4727 116,23.5508 Q115.3125,24.6133 115.3125,26.707 Q115.3125,28.8008 116,29.8789 Q116.6875,30.9414 118.0313,30.9414 Q118.6563,30.9414 119.25,30.6758 Q119.8438,30.3945 120.4688,29.8164 L120.4688,32.5352 Z " fill="#000000"/><text fill="#D9B8FF" font-family="Helvetica" font-size="17" lengthAdjust="spacing" textLength="71" x="136.5" y="32.7798">resource</text></g><!--reverse link ai_resource to ai_model--><g id="link_ai_resource_ai_model"><path codeLine="38" d="M96.9426,225.9843 C97.8926,263.7543 99.55,329.05 100.51,366.88 " fill="none" id="ai_resource-backto-ai_model" style="stroke:#FFAF37;stroke-width:2.0;"/><polygon fill="none" points="96.49,207.99,90.9445,226.1352,102.9407,225.8334,96.49,207.99" style="stroke:#FFAF37;stroke-width:2.0;"/></g><!--reverse link resource to ai_resource--><g id="link_resource_ai_resource"><path codeLine="39" d="M144.7613,63.781 C132.6513,94.301 115.75,136.9 103.63,167.47 " fill="none" id="resource-backto-ai_resource" style="stroke:#FFAF37;stroke-width:2.0;"/><polygon fill="none" points="151.4,47.05,139.1843,61.5681,150.3383,65.9939,151.4,47.05" style="stroke:#FFAF37;stroke-width:2.0;"/></g><!--reverse link ai_model to aws_bedrock_foundation_model--><g id="link_ai_model_aws_bedrock_foundation_model"><path codeLine="40" d="M114.8128,424.2236 C126.5328,454.7436 142.88,497.27 154.62,527.83 " fill="none" id="ai_model-backto-aws_bedrock_foundation_model" style="stroke:#FFAF37;stroke-width:2.0;"/><polygon fill="none" points="108.36,407.42,109.2116,426.3745,120.414,422.0727,108.36,407.42" style="stroke:#FFAF37;stroke-width:2.0;"/></g><!--reverse link aws_resource to aws_bedrock_foundation_model--><g id="link_aws_resource_aws_bedrock_foundation_model"><path codeLine="41" d="M214.3781,325.0093 C203.1281,372.7093 177.92,479.56 166.57,527.66 " fill="none" id="aws_resource-backto-aws_bedrock_foundation_model" style="stroke:#FFAF37;stroke-width:2.0;"/><polygon fill="none" points="218.51,307.49,208.5383,323.632,220.2179,326.3866,218.51,307.49" style="stroke:#FFAF37;stroke-width:2.0;"/></g><!--reverse link resource to aws_resource--><g id="link_resource_aws_resource"><path codeLine="42" d="M168.0317,64.3835 C179.8317,112.0935 206.29,218.98 218.2,267.08 " fill="none" id="resource-backto-aws_resource" style="stroke:#FFAF37;stroke-width:2.0;"/><polygon fill="none" points="163.71,46.91,162.2072,65.8241,173.8562,62.9429,163.71,46.91" style="stroke:#FFAF37;stroke-width:2.0;"/></g><!--SRC=[ZP3BRi8m44Nt_WfBh96Wg0MaRYXIrMvGLRf7atWCLX9FD7QAwEFVImgapWFezjxZcJFU68KIizplP8PPXEo4IupDWI6JCsRQpYabbZsjGO_6pVAHhByAB213-OJfEteJGvDusvWuiUYSl0cg1uYJDLDXrM6yPx1kNw7r0JLFmRcPzsoYmcCWewRHHEicsHpQ6wdX-0vR6B52FYA3mK0DfqtawggBTrV4qdoW78QVjY2FBStMYb_gecL919AjGq_zMSSNKChOjRmDijU34rlaMhxSWA9jIMj8NRZ6UMGalyjntheAfnEbnvtmypbOnENNIJ2hZ1IcybE8xx-CqL71CTRYhLj5g9ZYPANBWU0DsOxdUwxhVJqBbzn_zVlzIaMqyrCYAjrZTK59r3p-mNUmrTuV]--></g></svg>

<svg xmlns="http://www.w3.org/2000/svg" width="324" height="573" viewBox="0 0 324 573"><rect width="118" height="39.789" x="42" y="367.37" fill="#3D176E" rx="2.5" ry="2.5" style="stroke:#000d19;stroke-width:.5"/><circle cx="57" cy="387.264" r="11" fill="#ADD1B2" style="stroke:#181818;stroke-width:1"/><path d="M59.969 392.905q-.578.297-1.219.438-.64.156-1.344.156-2.5 0-3.828-1.64-1.312-1.657-1.312-4.782t1.312-4.781q1.328-1.656 3.828-1.656.703 0 1.344.156.656.156 1.219.453v2.719q-.625-.579-1.219-.844-.594-.281-1.219-.281-1.343 0-2.031 1.078-.687 1.062-.687 3.156t.687 3.172q.688 1.062 2.031 1.062.625 0 1.219-.265.594-.281 1.219-.86z"/><text x="76" y="393.15" fill="#D9B8FF" font-family="Helvetica" font-size="17" textLength="76">ai_model</text><rect width="137" height="39.789" x="27.5" y="167.79" fill="#3D176E" rx="2.5" ry="2.5" style="stroke:#000d19;stroke-width:.5"/><circle cx="42.5" cy="187.685" r="11" fill="#ADD1B2" style="stroke:#181818;stroke-width:1"/><path d="M45.469 193.325q-.578.297-1.219.438-.64.156-1.344.156-2.5 0-3.828-1.64-1.312-1.657-1.312-4.782t1.312-4.781q1.328-1.656 3.828-1.656.703 0 1.344.156.656.156 1.219.453v2.719q-.625-.578-1.219-.844-.594-.281-1.219-.281-1.343 0-2.031 1.078-.687 1.062-.687 3.156t.687 3.172q.688 1.062 2.031 1.062.625 0 1.219-.265.594-.281 1.219-.86z"/><text x="61.5" y="193.57" fill="#D9B8FF" font-family="Helvetica" font-size="17" textLength="95">ai_resource</text><rect width="310" height="39.789" x="7" y="528.16" fill="#3D176E" rx="2.5" ry="2.5" style="stroke:#000d19;stroke-width:.5"/><circle cx="22" cy="548.054" r="11" fill="#ADD1B2" style="stroke:#181818;stroke-width:1"/><path d="M24.969 553.695q-.578.297-1.219.438-.64.156-1.344.156-2.5 0-3.828-1.64-1.312-1.657-1.312-4.782t1.312-4.781q1.328-1.657 3.828-1.657.703 0 1.344.157.656.156 1.219.453v2.719q-.625-.579-1.219-.844-.594-.281-1.219-.281-1.343 0-2.031 1.078-.687 1.062-.687 3.156t.687 3.172q.688 1.062 2.031 1.062.625 0 1.219-.265.594-.282 1.219-.86z"/><text x="41" y="553.94" fill="#D9B8FF" font-family="Helvetica" font-size="17" textLength="268">aws_bedrock_foundation_model</text><rect width="155" height="39.789" x="145.5" y="267.58" fill="#3D176E" rx="2.5" ry="2.5" style="stroke:#000d19;stroke-width:.5"/><circle cx="160.5" cy="287.474" r="11" fill="#ADD1B2" style="stroke:#181818;stroke-width:1"/><path d="M163.469 293.115q-.578.297-1.219.438-.64.156-1.344.156-2.5 0-3.828-1.64-1.312-1.657-1.312-4.782t1.312-4.781q1.328-1.656 3.828-1.656.703 0 1.344.156.656.156 1.219.453v2.719q-.625-.579-1.219-.844-.594-.281-1.219-.281-1.344 0-2.031 1.078-.687 1.062-.687 3.156t.687 3.172q.688 1.062 2.031 1.062.625 0 1.219-.265.594-.281 1.219-.86z"/><text x="179.5" y="293.36" fill="#D9B8FF" font-family="Helvetica" font-size="17" textLength="113">aws_resource</text><rect width="113" height="39.789" x="102.5" y="7" fill="#3D176E" rx="2.5" ry="2.5" style="stroke:#000d19;stroke-width:.5"/><circle cx="117.5" cy="26.895" r="11" fill="#ADD1B2" style="stroke:#181818;stroke-width:1"/><path d="M120.469 32.535q-.578.297-1.219.438-.64.156-1.344.156-2.5 0-3.828-1.64-1.312-1.657-1.312-4.782t1.312-4.781q1.328-1.656 3.828-1.656.703 0 1.344.156.656.156 1.219.453v2.719q-.625-.578-1.219-.844-.594-.281-1.219-.281-1.344 0-2.031 1.078-.687 1.062-.687 3.156t.687 3.172q.688 1.062 2.031 1.062.625 0 1.219-.265.594-.281 1.219-.86z"/><text x="136.5" y="32.78" fill="#D9B8FF" font-family="Helvetica" font-size="17" textLength="71">resource</text><g fill="none"><path d="M96.943 225.984c.95 37.77 2.607 103.066 3.567 140.896" style="stroke:#ffaf37;stroke-width:2"/><path d="m96.49 207.99-5.545 18.145 11.996-.302z" style="stroke:#ffaf37;stroke-width:2"/></g><g fill="none"><path d="M144.761 63.781c-12.11 30.52-29.011 73.119-41.131 103.689" style="stroke:#ffaf37;stroke-width:2"/><path d="m151.4 47.05-12.216 14.518 11.154 4.426z" style="stroke:#ffaf37;stroke-width:2"/></g><path fill="none" d="M114.813 424.224c11.72 30.52 28.067 73.046 39.807 103.606m-46.26-120.41.852 18.954 11.202-4.301zm106.018-82.41c-11.25 47.7-36.458 154.55-47.808 202.65m51.94-220.17-9.972 16.142 11.68 2.755zM168.032 64.384c11.8 47.71 38.258 154.596 50.168 202.696M163.71 46.91l-1.503 18.914 11.65-2.881z" style="stroke:#ffaf37;stroke-width:2"/></svg>
